Newaita-dark/apps/48/linconnect.svg

<svg height="48pt" viewBox="0 0 48 48" width="48pt" xmlns="http://www.w3.org/2000/svg" xmlns:xlink="http://www.w3.org/1999/xlink"><linearGradient id="a" gradientUnits="userSpaceOnUse" x1="23.81478" x2="23.81478" y1="42.0509045" y2="44.03547050005"><stop offset="0" stop-opacity=".27451"/><stop offset="1" stop-opacity="0"/></linearGradient><linearGradient id="b"><stop offset="0" stop-opacity=".313726"/><stop offset=".222222" stop-opacity=".27451"/><stop offset="1" stop-opacity="0"/></linearGradient><radialGradient id="c" cx="450.908936" cy="189.579361" gradientTransform="matrix(.00000026 -.117199 -.210958 -.00000015 79.684395 95.392999)" gradientUnits="userSpaceOnUse" r="21.166656" xlink:href="#b"/><radialGradient id="d" cx="450.908936" cy="189.579361" gradientTransform="matrix(-.00000026 .117199 .210958 .00000015 -31.80678 -11.291218)" gradientUnits="userSpaceOnUse" r="21.166656" xlink:href="#b"/><radialGradient id="e" cx="450.908936" cy="189.579361" gradientTransform="matrix(-.00000026 -.117199 .210958 -.00000015 -31.80678 95.392999)" gradientUnits="userSpaceOnUse" r="21.166656" xlink:href="#b"/><radialGradient id="f" cx="450.908936" cy="189.579361" gradientTransform="matrix(.00000026 .117199 -.210958 .00000015 79.684393 -11.291219)" gradientUnits="userSpaceOnUse" r="21.166656" xlink:href="#b"/><linearGradient id="g" gradientUnits="userSpaceOnUse" x1="23.814786" x2="23.814786" y1="42.0509015" y2="4.34415649995"><stop offset="0" stop-color="#ff7043"/><stop offset="1" stop-color="#ff8a65"/></linearGradient><linearGradient id="h" gradientUnits="userSpaceOnUse" x1="23.814816" x2="23.814816" y1="42.05096580616" y2="4.34417306195"><stop offset="0" stop-color="#e0e0e0"/><stop offset="1" stop-color="#eee"/></linearGradient><path d="m7.691406 42.050781h32.496094v1.984375h-32.496094zm0 0" fill="url(#a)"/><path d="m40.1875 42.050781h3.96875v-1.984375h-3.96875zm0 0" fill="url(#c)"/><path d="m7.691406 42.050781h-3.96875v1.984375h3.96875zm0 0" fill="url(#d)"/><path d="m7.691406 42.050781h-3.96875v-1.984375h3.96875zm0 0" fill="url(#e)"/><path d="m40.1875 42.050781h3.96875v1.984375h-3.96875zm0 0" fill="url(#f)"/><path d="m4.960938 4.34375h37.707031c1.097656 0 1.984375.890625 1.984375 1.984375v33.738281c0 1.097656-.886719 1.984375-1.984375 1.984375h-37.707031c-1.09375 0-1.984376-.886719-1.984376-1.984375v-33.738281c0-1.09375.890626-1.984375 1.984376-1.984375zm0 0" fill="url(#g)"/><path d="m4.960938 4.34375c-1.097657 0-1.984376.886719-1.984376 1.984375v.496094c0-1.097657.886719-1.984375 1.984376-1.984375h37.707031c1.101562 0 1.984375.886718 1.984375 1.984375v-.496094c0-1.097656-.882813-1.984375-1.984375-1.984375zm0 0" fill="#fff" fill-opacity=".392157"/><path d="m4.960938 42.050781c-1.097657 0-1.984376-.886719-1.984376-1.984375v-.496094c0 1.097657.886719 1.984376 1.984376 1.984376h37.707031c1.101562 0 1.984375-.886719 1.984375-1.984376v.496094c0 1.097656-.882813 1.984375-1.984375 1.984375zm0 0" fill-opacity=".235294"/><path d="m16.867188 15.011719c-.546876 0-.992188.441406-.992188.992187v1.050782c0-.550782.445312-.996094.992188-.996094h13.894531c.546875 0 .992187.445312.992187.996094v-1.050782c0-.550781-.445312-.992187-.992187-.992187zm-3.96875 11.90625v1.050781c0 .933594.644531 1.714844 1.511718 1.925781h18.808594c.871094-.210937 1.511719-.992187 1.511719-1.925781v-1.050781c0 1.101562-.886719 1.984375-1.984375 1.984375h-17.863282c-1.097656 0-1.984374-.882813-1.984374-1.984375zm-2.976563 4.992187v.027344.992188c0 .550781.445313.992187.992187.992187h25.800782c.550781 0 .992187-.441406.992187-.992187v-.992188c0-.011719 0-.019531 0-.027344-.015625.535156-.453125.960938-.992187.960938h-25.800782c-.539062 0-.976562-.425782-.992187-.960938zm0 0" fill-opacity=".235294"/><path d="m4.960938 4.203125c-1.175782 0-2.125.949219-2.125 2.125v33.738281c0 1.175782.949218 2.125 2.125 2.125h37.707031c1.175781 0 2.125-.949218 2.125-2.125v-33.738281c0-1.175781-.949219-2.125-2.125-2.125zm0 .28125h37.707031c1.023437 0 1.84375.820313 1.84375 1.84375v33.738281c0 1.023438-.820313 1.84375-1.84375 1.84375h-37.707031c-1.023438 0-1.84375-.820312-1.84375-1.84375v-33.738281c0-1.023437.820312-1.84375 1.84375-1.84375zm0 0" fill="#212121"/><path d="m14.882812 12.28125c-1.097656 0-1.984374.886719-1.984374 1.984375v12.902344c0 1.097656.886718 1.984375 1.984374 1.984375h17.863282c1.097656 0 1.984375-.886719 1.984375-1.984375v-12.902344c0-1.097656-.886719-1.984375-1.984375-1.984375zm1.984376 2.976562h13.894531c.546875 0 .992187.445313.992187.992188v8.933594c0 .546875-.445312.992187-.992187.992187h-13.894531c-.546876 0-.992188-.445312-.992188-.992187v-8.933594c0-.546875.445312-.992188.992188-.992188zm-5.953126 14.886719c-.546874 0-.992187.441407-.992187.992188v.992187c0 .550782.445313.992188.992187.992188h25.800782c.550781 0 .992187-.441406.992187-.992188v-.992187c0-.550781-.441406-.992188-.992187-.992188zm0 0" fill="url(#h)"/><path d="m14.882812 12.28125c-1.097656 0-1.984374.886719-1.984374 1.984375v.746094c0-1.101563.886718-1.984375 1.984374-1.984375h17.863282c1.097656 0 1.984375.882812 1.984375 1.984375v-.746094c0-1.097656-.886719-1.984375-1.984375-1.984375zm.992188 12.902344v.742187c0 .550781.445312.992188.992188.992188h13.894531c.546875 0 .992187-.441407.992187-.992188v-.742187c0 .546875-.445312.992187-.992187.992187h-13.894531c-.546876 0-.992188-.445312-.992188-.992187zm-4.960938 4.960937c-.546874 0-.992187.441407-.992187.992188v.742187c0-.546875.445313-.992187.992187-.992187h25.800782c.550781 0 .992187.445312.992187.992187v-.742187c0-.550781-.441406-.992188-.992187-.992188zm0 0" fill="#fff"/><path d="m14.882812 12.140625c-1.171874 0-2.125.953125-2.125 2.125v12.902344c0 1.171875.953126 2.125 2.125 2.125h17.863282c1.175781 0 2.125-.953125 2.125-2.125v-12.902344c0-1.171875-.949219-2.125-2.125-2.125zm0 .28125h17.863282c1.023437 0 1.84375.820313 1.84375 1.84375v12.902344c0 1.023437-.820313 1.84375-1.84375 1.84375h-17.863282c-1.023437 0-1.84375-.820313-1.84375-1.84375v-12.902344c0-1.023437.820313-1.84375 1.84375-1.84375zm1.984376 2.695313c-.625 0-1.132813.507812-1.132813 1.132812v8.933594c0 .625.507813 1.132812 1.132813 1.132812h13.894531c.625 0 1.132812-.507812 1.132812-1.132812v-8.933594c0-.625-.507812-1.132812-1.132812-1.132812zm0 .28125h13.894531c.472656 0 .851562.378906.851562.851562v8.933594c0 .472656-.378906.851562-.851562.851562h-13.894531c-.472657 0-.851563-.378906-.851563-.851562v-8.933594c0-.472656.378906-.851562.851563-.851562zm-5.953126 14.605468c-.625 0-1.132812.507813-1.132812 1.132813v.992187c0 .625.507812 1.132813 1.132812 1.132813h25.800782c.625 0 1.132812-.507813 1.132812-1.132813v-.992187c0-.625-.507812-1.132813-1.132812-1.132813zm0 .28125h25.800782c.472656 0 .851562.375.851562.851563v.992187c0 .472656-.378906.851563-.851562.851563h-25.800782c-.472656 0-.851562-.378907-.851562-.851563v-.992187c0-.476563.378906-.851563.851562-.851563zm0 0" fill="#212121"/></svg>

<?xml version="1.0" encoding="UTF-8"?>
<svg xmlns="http://www.w3.org/2000/svg" xmlns:xlink="http://www.w3.org/1999/xlink" width="48pt" height="48pt" viewBox="0 0 48 48" version="1.1">
<defs>
<linearGradient id="linear0" gradientUnits="userSpaceOnUse" x1="254" y1="233.5" x2="254" y2="254.666672" gradientTransform="matrix(0.093759,0,0,0.093759,-0.00000572259,20.158178)">
<stop offset="0" style="stop-color:rgb(0%,0%,0%);stop-opacity:0.27451;"/>
<stop offset="1" style="stop-color:rgb(0%,0%,0%);stop-opacity:0;"/>
</linearGradient>
<radialGradient id="radial0" gradientUnits="userSpaceOnUse" cx="450.908936" cy="189.579361" fx="450.908936" fy="189.579361" r="21.166656" gradientTransform="matrix(0.000000261256,-0.117199,-0.210958,-0.000000152308,79.684395,95.392999)">
<stop offset="0" style="stop-color:rgb(0%,0%,0%);stop-opacity:0.313726;"/>
<stop offset="0.222222" style="stop-color:rgb(0%,0%,0%);stop-opacity:0.27451;"/>
<stop offset="1" style="stop-color:rgb(0%,0%,0%);stop-opacity:0;"/>
</radialGradient>
<radialGradient id="radial1" gradientUnits="userSpaceOnUse" cx="450.908936" cy="189.579361" fx="450.908936" fy="189.579361" r="21.166656" gradientTransform="matrix(-0.000000261256,0.117199,0.210958,0.000000152308,-31.80678,-11.291218)">
<stop offset="0" style="stop-color:rgb(0%,0%,0%);stop-opacity:0.313726;"/>
<stop offset="0.222222" style="stop-color:rgb(0%,0%,0%);stop-opacity:0.27451;"/>
<stop offset="1" style="stop-color:rgb(0%,0%,0%);stop-opacity:0;"/>
</radialGradient>
<radialGradient id="radial2" gradientUnits="userSpaceOnUse" cx="450.908936" cy="189.579361" fx="450.908936" fy="189.579361" r="21.166656" gradientTransform="matrix(-0.000000261256,-0.117199,0.210958,-0.000000152308,-31.80678,95.392999)">
<stop offset="0" style="stop-color:rgb(0%,0%,0%);stop-opacity:0.313726;"/>
<stop offset="0.222222" style="stop-color:rgb(0%,0%,0%);stop-opacity:0.27451;"/>
<stop offset="1" style="stop-color:rgb(0%,0%,0%);stop-opacity:0;"/>
</radialGradient>
<radialGradient id="radial3" gradientUnits="userSpaceOnUse" cx="450.908936" cy="189.579361" fx="450.908936" fy="189.579361" r="21.166656" gradientTransform="matrix(0.000000261256,0.117199,-0.210958,0.000000152308,79.684393,-11.291219)">
<stop offset="0" style="stop-color:rgb(0%,0%,0%);stop-opacity:0.313726;"/>
<stop offset="0.222222" style="stop-color:rgb(0%,0%,0%);stop-opacity:0.27451;"/>
<stop offset="1" style="stop-color:rgb(0%,0%,0%);stop-opacity:0;"/>
</radialGradient>
<linearGradient id="linear1" gradientUnits="userSpaceOnUse" x1="254" y1="233.5" x2="254" y2="-168.666672" gradientTransform="matrix(0.093759,0,0,0.093759,0,20.158175)">
<stop offset="0" style="stop-color:rgb(100%,43.921569%,26.274511%);stop-opacity:1;"/>
<stop offset="1" style="stop-color:rgb(100%,54.11765%,39.607844%);stop-opacity:1;"/>
</linearGradient>
<linearGradient id="linear2" gradientUnits="userSpaceOnUse" x1="960" y1="1695.118164" x2="960" y2="175.118134" gradientTransform="matrix(0.0248071,0,0,0.0248071,0,0.00000000000000282)">
<stop offset="0" style="stop-color:rgb(87.843138%,87.843138%,87.843138%);stop-opacity:1;"/>
<stop offset="1" style="stop-color:rgb(93.333334%,93.333334%,93.333334%);stop-opacity:1;"/>
</linearGradient>
</defs>
<g id="surface1">
<path style=" stroke:none;fill-rule:nonzero;fill:url(#linear0);" d="M 7.691406 42.050781 L 40.1875 42.050781 L 40.1875 44.035156 L 7.691406 44.035156 Z M 7.691406 42.050781 "/>
<path style=" stroke:none;fill-rule:nonzero;fill:url(#radial0);" d="M 40.1875 42.050781 L 44.15625 42.050781 L 44.15625 40.066406 L 40.1875 40.066406 Z M 40.1875 42.050781 "/>
<path style=" stroke:none;fill-rule:nonzero;fill:url(#radial1);" d="M 7.691406 42.050781 L 3.722656 42.050781 L 3.722656 44.035156 L 7.691406 44.035156 Z M 7.691406 42.050781 "/>
<path style=" stroke:none;fill-rule:nonzero;fill:url(#radial2);" d="M 7.691406 42.050781 L 3.722656 42.050781 L 3.722656 40.066406 L 7.691406 40.066406 Z M 7.691406 42.050781 "/>
<path style=" stroke:none;fill-rule:nonzero;fill:url(#radial3);" d="M 40.1875 42.050781 L 44.15625 42.050781 L 44.15625 44.035156 L 40.1875 44.035156 Z M 40.1875 42.050781 "/>
<path style=" stroke:none;fill-rule:nonzero;fill:url(#linear1);" d="M 4.960938 4.34375 L 42.667969 4.34375 C 43.765625 4.34375 44.652344 5.234375 44.652344 6.328125 L 44.652344 40.066406 C 44.652344 41.164062 43.765625 42.050781 42.667969 42.050781 L 4.960938 42.050781 C 3.867188 42.050781 2.976562 41.164062 2.976562 40.066406 L 2.976562 6.328125 C 2.976562 5.234375 3.867188 4.34375 4.960938 4.34375 Z M 4.960938 4.34375 "/>
<path style=" stroke:none;fill-rule:nonzero;fill:rgb(100%,100%,100%);fill-opacity:0.392157;" d="M 4.960938 4.34375 C 3.863281 4.34375 2.976562 5.230469 2.976562 6.328125 L 2.976562 6.824219 C 2.976562 5.726562 3.863281 4.839844 4.960938 4.839844 L 42.667969 4.839844 C 43.769531 4.839844 44.652344 5.726562 44.652344 6.824219 L 44.652344 6.328125 C 44.652344 5.230469 43.769531 4.34375 42.667969 4.34375 Z M 4.960938 4.34375 "/>
<path style=" stroke:none;fill-rule:nonzero;fill:rgb(0%,0%,0%);fill-opacity:0.235294;" d="M 4.960938 42.050781 C 3.863281 42.050781 2.976562 41.164062 2.976562 40.066406 L 2.976562 39.570312 C 2.976562 40.667969 3.863281 41.554688 4.960938 41.554688 L 42.667969 41.554688 C 43.769531 41.554688 44.652344 40.667969 44.652344 39.570312 L 44.652344 40.066406 C 44.652344 41.164062 43.769531 42.050781 42.667969 42.050781 Z M 4.960938 42.050781 "/>
<path style=" stroke:none;fill-rule:nonzero;fill:rgb(0%,0%,0%);fill-opacity:0.235294;" d="M 16.867188 15.011719 C 16.320312 15.011719 15.875 15.453125 15.875 16.003906 L 15.875 17.054688 C 15.875 16.503906 16.320312 16.058594 16.867188 16.058594 L 30.761719 16.058594 C 31.308594 16.058594 31.753906 16.503906 31.753906 17.054688 L 31.753906 16.003906 C 31.753906 15.453125 31.308594 15.011719 30.761719 15.011719 Z M 12.898438 26.917969 L 12.898438 27.96875 C 12.898438 28.902344 13.542969 29.683594 14.410156 29.894531 L 33.21875 29.894531 C 34.089844 29.683594 34.730469 28.902344 34.730469 27.96875 L 34.730469 26.917969 C 34.730469 28.019531 33.84375 28.902344 32.746094 28.902344 L 14.882812 28.902344 C 13.785156 28.902344 12.898438 28.019531 12.898438 26.917969 Z M 9.921875 31.910156 C 9.921875 31.917969 9.921875 31.925781 9.921875 31.9375 L 9.921875 32.929688 C 9.921875 33.480469 10.367188 33.921875 10.914062 33.921875 L 36.714844 33.921875 C 37.265625 33.921875 37.707031 33.480469 37.707031 32.929688 L 37.707031 31.9375 C 37.707031 31.925781 37.707031 31.917969 37.707031 31.910156 C 37.691406 32.445312 37.253906 32.871094 36.714844 32.871094 L 10.914062 32.871094 C 10.375 32.871094 9.9375 32.445312 9.921875 31.910156 Z M 9.921875 31.910156 "/>
<path style=" stroke:none;fill-rule:nonzero;fill:rgb(12.941177%,12.941177%,12.941177%);fill-opacity:1;" d="M 4.960938 4.203125 C 3.785156 4.203125 2.835938 5.152344 2.835938 6.328125 L 2.835938 40.066406 C 2.835938 41.242188 3.785156 42.191406 4.960938 42.191406 L 42.667969 42.191406 C 43.84375 42.191406 44.792969 41.242188 44.792969 40.066406 L 44.792969 6.328125 C 44.792969 5.152344 43.84375 4.203125 42.667969 4.203125 Z M 4.960938 4.484375 L 42.667969 4.484375 C 43.691406 4.484375 44.511719 5.304688 44.511719 6.328125 L 44.511719 40.066406 C 44.511719 41.089844 43.691406 41.910156 42.667969 41.910156 L 4.960938 41.910156 C 3.9375 41.910156 3.117188 41.089844 3.117188 40.066406 L 3.117188 6.328125 C 3.117188 5.304688 3.9375 4.484375 4.960938 4.484375 Z M 4.960938 4.484375 "/>
<path style=" stroke:none;fill-rule:nonzero;fill:url(#linear2);" d="M 14.882812 12.28125 C 13.785156 12.28125 12.898438 13.167969 12.898438 14.265625 L 12.898438 27.167969 C 12.898438 28.265625 13.785156 29.152344 14.882812 29.152344 L 32.746094 29.152344 C 33.84375 29.152344 34.730469 28.265625 34.730469 27.167969 L 34.730469 14.265625 C 34.730469 13.167969 33.84375 12.28125 32.746094 12.28125 Z M 16.867188 15.257812 L 30.761719 15.257812 C 31.308594 15.257812 31.753906 15.703125 31.753906 16.25 L 31.753906 25.183594 C 31.753906 25.730469 31.308594 26.175781 30.761719 26.175781 L 16.867188 26.175781 C 16.320312 26.175781 15.875 25.730469 15.875 25.183594 L 15.875 16.25 C 15.875 15.703125 16.320312 15.257812 16.867188 15.257812 Z M 10.914062 30.144531 C 10.367188 30.144531 9.921875 30.585938 9.921875 31.136719 L 9.921875 32.128906 C 9.921875 32.679688 10.367188 33.121094 10.914062 33.121094 L 36.714844 33.121094 C 37.265625 33.121094 37.707031 32.679688 37.707031 32.128906 L 37.707031 31.136719 C 37.707031 30.585938 37.265625 30.144531 36.714844 30.144531 Z M 10.914062 30.144531 "/>
<path style=" stroke:none;fill-rule:nonzero;fill:rgb(100%,100%,100%);fill-opacity:1;" d="M 14.882812 12.28125 C 13.785156 12.28125 12.898438 13.167969 12.898438 14.265625 L 12.898438 15.011719 C 12.898438 13.910156 13.785156 13.027344 14.882812 13.027344 L 32.746094 13.027344 C 33.84375 13.027344 34.730469 13.910156 34.730469 15.011719 L 34.730469 14.265625 C 34.730469 13.167969 33.84375 12.28125 32.746094 12.28125 Z M 15.875 25.183594 L 15.875 25.925781 C 15.875 26.476562 16.320312 26.917969 16.867188 26.917969 L 30.761719 26.917969 C 31.308594 26.917969 31.753906 26.476562 31.753906 25.925781 L 31.753906 25.183594 C 31.753906 25.730469 31.308594 26.175781 30.761719 26.175781 L 16.867188 26.175781 C 16.320312 26.175781 15.875 25.730469 15.875 25.183594 Z M 10.914062 30.144531 C 10.367188 30.144531 9.921875 30.585938 9.921875 31.136719 L 9.921875 31.878906 C 9.921875 31.332031 10.367188 30.886719 10.914062 30.886719 L 36.714844 30.886719 C 37.265625 30.886719 37.707031 31.332031 37.707031 31.878906 L 37.707031 31.136719 C 37.707031 30.585938 37.265625 30.144531 36.714844 30.144531 Z M 10.914062 30.144531 "/>
<path style=" stroke:none;fill-rule:nonzero;fill:rgb(12.941177%,12.941177%,12.941177%);fill-opacity:1;" d="M 14.882812 12.140625 C 13.710938 12.140625 12.757812 13.09375 12.757812 14.265625 L 12.757812 27.167969 C 12.757812 28.339844 13.710938 29.292969 14.882812 29.292969 L 32.746094 29.292969 C 33.921875 29.292969 34.871094 28.339844 34.871094 27.167969 L 34.871094 14.265625 C 34.871094 13.09375 33.921875 12.140625 32.746094 12.140625 Z M 14.882812 12.421875 L 32.746094 12.421875 C 33.769531 12.421875 34.589844 13.242188 34.589844 14.265625 L 34.589844 27.167969 C 34.589844 28.191406 33.769531 29.011719 32.746094 29.011719 L 14.882812 29.011719 C 13.859375 29.011719 13.039062 28.191406 13.039062 27.167969 L 13.039062 14.265625 C 13.039062 13.242188 13.859375 12.421875 14.882812 12.421875 Z M 16.867188 15.117188 C 16.242188 15.117188 15.734375 15.625 15.734375 16.25 L 15.734375 25.183594 C 15.734375 25.808594 16.242188 26.316406 16.867188 26.316406 L 30.761719 26.316406 C 31.386719 26.316406 31.894531 25.808594 31.894531 25.183594 L 31.894531 16.25 C 31.894531 15.625 31.386719 15.117188 30.761719 15.117188 Z M 16.867188 15.398438 L 30.761719 15.398438 C 31.234375 15.398438 31.613281 15.777344 31.613281 16.25 L 31.613281 25.183594 C 31.613281 25.65625 31.234375 26.035156 30.761719 26.035156 L 16.867188 26.035156 C 16.394531 26.035156 16.015625 25.65625 16.015625 25.183594 L 16.015625 16.25 C 16.015625 15.777344 16.394531 15.398438 16.867188 15.398438 Z M 10.914062 30.003906 C 10.289062 30.003906 9.78125 30.511719 9.78125 31.136719 L 9.78125 32.128906 C 9.78125 32.753906 10.289062 33.261719 10.914062 33.261719 L 36.714844 33.261719 C 37.339844 33.261719 37.847656 32.753906 37.847656 32.128906 L 37.847656 31.136719 C 37.847656 30.511719 37.339844 30.003906 36.714844 30.003906 Z M 10.914062 30.285156 L 36.714844 30.285156 C 37.1875 30.285156 37.566406 30.660156 37.566406 31.136719 L 37.566406 32.128906 C 37.566406 32.601562 37.1875 32.980469 36.714844 32.980469 L 10.914062 32.980469 C 10.441406 32.980469 10.0625 32.601562 10.0625 32.128906 L 10.0625 31.136719 C 10.0625 30.660156 10.441406 30.285156 10.914062 30.285156 Z M 10.914062 30.285156 "/>
</g>
</svg>
